icons/at.svg

<svg xmlns="http://www.w3.org/2000/svg" width="24" height="24" viewBox="0 0 24 24">
  <path d="M12,2 C17.4292636,2 21.8479325,6.32666076 21.9961582,11.7200946 L22,12 L22,13 C22,15.4126966 20.5637682,17 18.5,17 C17.2563114,17 16.2405208,16.4235504 15.6296134,15.4373973 C14.7197473,16.3996869 13.4299673,17 12,17 C9.23858752,17 7,14.761397 7,12 C7,9.23857525 9.23857525,7 12,7 C14.761397,7 17,9.23858752 17,12 L17,12 L17,13 C17,14.3502686 17.5878932,15 18.5,15 C19.3665014,15 19.9404001,14.4136174 19.9956238,13.1972926 L20,13 L20,12 C20,7.58171025 16.4183007,4 12,4 C7.58172475,4 4,7.58172475 4,12 C4,16.4183007 7.58171025,20 12,20 L12.014,20.001 L12.3486413,19.9942638 C13.6215271,19.9400285 14.8684049,19.581518 16,18.92818 C16.4782803,18.6520325 17.0898725,18.815901 17.36602,19.2941907 C17.6421675,19.7724803 17.478299,20.3840725 17,20.66022 C15.4589085,21.5499971 13.7414201,22.0030938 11.9990872,22.0015075 L11.977,22 L11.7200946,21.9961582 C6.32666076,21.8479325 2,17.4292636 2,12 C2,6.47715525 6.47715525,2 12,2 Z M12,9 C10.3431447,9 9,10.3431447 9,12 C9,13.6568306 10.3431601,15 12,15 C13.6568153,15 15,13.6568153 15,12 C15,10.3431601 13.6568306,9 12,9 Z"/>
</svg>

<svg xmlns="http://www.w3.org/2000/svg" viewBox="0 0 24 24">
  <path d="M12 2a10 10 0 0 1 10 9.72V13c0 2.41-1.44 4-3.5 4a3.26 3.26 0 0 1-2.87-1.56A5 5 0 1 1 17 12v1c0 1.35.59 2 1.5 2 .87 0 1.44-.59 1.5-1.8V12a8 8 0 1 0-8 8h.35A7.96 7.96 0 0 0 16 18.92a1 1 0 1 1 1 1.73A9.96 9.96 0 0 1 12 22h-.28A10 10 0 0 1 12 2zm0 7a3 3 0 1 0 0 6 3 3 0 0 0 0-6z"/>
</svg>
